X:428
T: WAS KUEMMERT MICH DIE GANZE WELT
N: F0796
O: Europa, Mitteleuropa, Deutschland
R: Geselligkeits - Lied, Scherz
M: 2/4
L: 1/16
K: Eb
EG | B2c2B2EG | B2c2B2z
B | =A2_A2G2B2 | F4z2
EG | B2c2B2EG | B2c2B2
e2 | e2dcd2=B2 | c2G4
e2 | d2cBc2=A2 | B4z2
B,2 | B,2B,2B,2B,2 | B,2G2F2
GF | E2GFE2DC | G4z2
e2 | d2c2B2GA | B2A2G2
B2 | B2A2G2F2 | G2=A2B2
c2 | B2G2A2F2 | E4z2

